icons/folder-command-open.svg

<svg xmlns="http://www.w3.org/2000/svg" viewBox="0 0 32 32">
  <path d="M28.96692,12H9.44152a2,2,0,0,0-1.89737,1.36754L4,24V10H28a2,2,0,0,0-2-2H15.1241a2,2,0,0,1-1.28038-.46357L12.5563,6.46357A2,2,0,0,0,11.27592,6H4A2,2,0,0,0,2,8V24a2,2,0,0,0,2,2H26l4.80523-11.21213A2,2,0,0,0,28.96692,12Z" style="fill: #03a9f4"/>
  <path d="M28,28a2.00006,2.00006,0,0,0,2-2V16a2,2,0,0,0-2-2H12a2,2,0,0,0-2,2V26a2.00006,2.00006,0,0,0,2,2H8v2H32V28Zm0-2H20V24h8ZM12,17.73633l1.01416-1.72461L20.03711,20v2l-7.02295,4L12,24.27539l5.55811-3.26953Z" style="fill: #b3e5fc;fill-rule: evenodd"/>
</svg>

<svg xmlns="http://www.w3.org/2000/svg" viewBox="0 0 32 32"><path fill="#03a9f4" d="M28.967 12H9.442a2 2 0 0 0-1.898 1.368L4 24V10h24a2 2 0 0 0-2-2H15.124a2 2 0 0 1-1.28-.464l-1.288-1.072A2 2 0 0 0 11.276 6H4a2 2 0 0 0-2 2v16a2 2 0 0 0 2 2h22l4.805-11.212A2 2 0 0 0 28.967 12Z"/><path fill="#b3e5fc" fill-rule="evenodd" d="M28 28a2 2 0 0 0 2-2V16a2 2 0 0 0-2-2H12a2 2 0 0 0-2 2v10a2 2 0 0 0 2 2H8v2h24v-2Zm0-2h-8v-2h8Zm-16-8.264 1.014-1.724L20.037 20v2l-7.023 4L12 24.275l5.558-3.27Z"/></svg>
